svg/alert_circle_negative.svg

<?xml version="1.0" encoding="UTF-8" standalone="no"?>
<!-- Created with Inkscape (http://www.inkscape.org/) -->
<svg id="svg8" xmlns:rdf="http://www.w3.org/1999/02/22-rdf-syntax-ns#" xmlns="http://www.w3.org/2000/svg" xmlns:osb="http://www.openswatchbook.org/uri/2009/osb" height="48" width="48" version="1.1" xmlns:cc="http://creativecommons.org/ns#" viewBox="0 0 12.7 12.7" xmlns:dc="http://purl.org/dc/elements/1.1/">
 <title id="title4753">UIO-icon</title>
 <metadata id="metadata5">
  <rdf:RDF>
   <cc:Work rdf:about="">
    <dc:format>image/svg+xml</dc:format>
    <dc:type rdf:resource="http://purl.org/dc/dcmitype/StillImage"/>
    <dc:title>UIO-icon</dc:title>
    <dc:creator>
     <cc:Agent>
      <dc:title>Joaquín Urbano</dc:title>
     </cc:Agent>
    </dc:creator>
    <dc:rights>
     <cc:Agent>
      <dc:title>GPL</dc:title>
     </cc:Agent>
    </dc:rights>
   </cc:Work>
  </rdf:RDF>
 </metadata>
 <g id="layer1" fill="#333" transform="translate(0,-284.3)">
  <path id="rect894" d="m0 0v48h48v-48zm24 4a20 20 0 0 1 20 20 20 20 0 0 1 -20 20 20 20 0 0 1 -20 -20 20 20 0 0 1 20 -20zm-1.5605 8.832 0.19727 15.91h2.543l0.21289-15.91zm1.5527 19.139c-0.54812 0-0.96384 0.158-1.248 0.47266-0.27406 0.30451-0.41211 0.68386-0.41211 1.1406 0 0.45677 0.13805 0.83807 0.41211 1.1426 0.28421 0.29436 0.69993 0.44141 1.248 0.44141 0.54812 0 0.96384-0.14705 1.248-0.44141 0.28421-0.30451 0.42773-0.68581 0.42773-1.1426 0-0.45677-0.14352-0.83611-0.42773-1.1406-0.28421-0.31466-0.69993-0.47266-1.248-0.47266z" fill-rule="evenodd" transform="matrix(.26458 0 0 .26458 0 284.3)"/>
 </g>
</svg>

<svg width="48" height="48" viewBox="0 0 48 48" fill="none" xmlns="http://www.w3.org/2000/svg">
<path fill-rule="evenodd" clip-rule="evenodd" d="M0 0V47.9994H47.9994V0H0ZM23.9997 3.99995C26.6261 3.99995 29.2268 4.51726 31.6533 5.52234C34.0798 6.52742 36.2845 8.00059 38.1417 9.85774C39.9988 11.7149 41.472 13.9196 42.4771 16.3461C43.4821 18.7726 43.9994 21.3733 43.9995 23.9997C43.9994 29.304 41.8923 34.391 38.1417 38.1417C34.391 41.8923 29.304 43.9995 23.9997 43.9995C21.3733 43.9995 18.7726 43.4821 16.3461 42.4771C13.9196 41.472 11.7149 39.9988 9.85774 38.1417C6.10706 34.391 3.99995 29.304 3.99995 23.9997C3.99995 18.6954 6.10706 13.6084 9.85774 9.85774C13.6084 6.10706 18.6954 3.99995 23.9997 3.99995ZM22.4392 12.8318L22.6365 28.7416H25.1795L25.3923 12.8318H22.4392ZM23.9919 31.9706C23.4438 31.9706 23.0281 32.1286 22.7439 32.4433C22.4699 32.7478 22.3318 33.1271 22.3318 33.5838C22.3318 34.0406 22.4699 34.4219 22.7439 34.7264C23.0281 35.0208 23.4438 35.1678 23.9919 35.1678C24.54 35.1678 24.9557 35.0208 25.2399 34.7264C25.5241 34.4219 25.6676 34.0406 25.6676 33.5838C25.6676 33.1271 25.5241 32.7477 25.2399 32.4433C24.9557 32.1286 24.54 31.9706 23.9919 31.9706Z" fill="#333333"/>
</svg>
